X: 517
T: Aaron's Key
R: jig
M: 6/8
K: Bminor
E|F2B Bcd|cAA ABc|dBB Bcd|efd ecA|
F2B Bcd|cAA ABc|dcd efg|fdB ~B2A|
F2B Bcd|cAA ABc|dBB Bcd|efd ecA|
fgf fed|cec ABc|dcd efg|fdB B2c||
|:d2f fgf|ecA a2g|fgf fed|cec ABc|
BFB cBc|dcd efg|fed cBA|1 B3 B2c:|2 B3 B2A||

